X:1
T:[ID 5-16]
T:[ID 5-16]
T:Bezeichnung standardisiert: Courante Courant
T:Urheber unbekannt Erstbeleg: 1773 (Datum in der schriftlichen Quelle) Datum in der hier transkribierten schriftlichen Quelle: 1776 - 1791
C:Urheber unbekannt
C:Erstbeleg: 1773 (Datum in der schriftlichen Quelle)
C:Datum in der hier transkribierten schriftlichen Quelle: 1776 - 1791
L:1/8
M:2/4
K:D
V:1 treble 
V:1
 A | dfeg | fa a2 | fe/d/ cd | e/d/c/B/ AA | dfeg | fa a2 |{g} fe/d/ c/d/e/c/ | d3 :: g | faeg | %11
 faeg | fe/d/ cd | e/d/c/B/ Ag | faeg | fa a2 |{g} fe/d/ c/d/e/c/ | d3 :| %18

